icons/feed-forked-16.svg

<svg width="16" height="16" viewBox="0 0 16 16" fill="none" xmlns="http://www.w3.org/2000/svg">
<path fill-rule="evenodd" clip-rule="evenodd" d="M8 16C12.4183 16 16 12.4183 16 8C16 3.58172 12.4183 0 8 0C3.58172 0 0 3.58172 0 8C0 12.4183 3.58172 16 8 16ZM6 6.92753C6.72287 6.71239 7.25 6.04276 7.25 5.25C7.25 4.2835 6.4665 3.5 5.5 3.5C4.5335 3.5 3.75 4.2835 3.75 5.25C3.75 6.04276 4.27713 6.71239 5 6.92753V7.5C5 8.32843 5.67157 9 6.5 9H7.5V10.0725C6.77713 10.2876 6.25 10.9572 6.25 11.75C6.25 12.7165 7.0335 13.5 8 13.5C8.9665 13.5 9.75 12.7165 9.75 11.75C9.75 10.9572 9.22287 10.2876 8.5 10.0725V9H9.5C10.3284 9 11 8.32843 11 7.5V6.92753C11.7229 6.71239 12.25 6.04276 12.25 5.25C12.25 4.2835 11.4665 3.5 10.5 3.5C9.5335 3.5 8.75 4.2835 8.75 5.25C8.75 6.04276 9.27713 6.71239 10 6.92753V7.5C10 7.77614 9.77614 8 9.5 8H6.5C6.22386 8 6 7.77614 6 7.5V6.92753Z" fill="#24292F"/>
</svg>

<svg xmlns="http://www.w3.org/2000/svg" width="16" height="16" viewBox="0 0 16 16"><path fill-rule="evenodd" d="M8 16A8 8 0 108 0a8 8 0 000 16zM6 6.928a1.75 1.75 0 10-1 0V7.5A1.5 1.5 0 006.5 9h1v1.072a1.75 1.75 0 101 0V9h1A1.5 1.5 0 0011 7.5v-.572a1.75 1.75 0 10-1 0V7.5a.5.5 0 01-.5.5h-3a.5.5 0 01-.5-.5v-.572z"/></svg>
